X: 8007
T: Connaughtman's Rambles, The
R: jig
M: 6/8
K: Dmajor
A|FAA BAA|dAA BAA|FAA dfe|dBB B2A|
FAA BAA|dAA def|gfe dfe|dBB B2:|
|:e|faa faa|fef d2e|faa faa|fed e3|
faa baa|fef def|gfe dfe|dBB B2:|

